!!!OTL: 202. Sher
!!!Genre:	Sher
!!!Mode:	Minor
!!!Listening/dance:	dance
!!!One_Mode:	yes
**kern
*I"P1
*clefG2
*k[b-e-]
*g:
*M2/4
*>A
!LO:TX:a:i:t=G-minor
=1
4g
4g
=2
(16gLL
16a-XJ
8fJ)
8fL
8fJ
=3
8gL
8ccJ
8ccL
16b-L
16anJJ
=4
4.b-
8b-
=5
(16b-LL
16ccJ)
8aJ
(16aLL
16b-J)
8gJ
=6
16gLL
16aJ
8fJ
8fL
8fJ
=7
(16b-LL
16f)
(16f
16b-JJ)
(16b-LL
16a-X)
(16a-
16gJJ)
*>A1
=8
4.g
8g
*>A2
=9:|!
4g
8r
*>B
*>bM
*B-:
8f
=10
!LO:TX:a:i:t=Bb-major
4.b-
16ccLL
16ddJJ
=11
4.b-
16ccLL
16ddJJ
=12
8b-L
16ccL
16ddJJ
8b-L
16ccL
16ddJJ
=13
4.b-
8f
=14
8.ccL
16b-Jk
8b-L
8ccJ
=15
8ccL
8ddJ
4b-
=16
8.ccL
16b-Jk
8b-L
8ccJ
=17
8ccL
8ddJ
4b-
=18
8gL
8ccJ
8ccL
16b-L
16aJJ
=19
4g
4f
=20
8gL
8ccJ
8ccL
16b-L
16aJJ
=21
4.b-
*>eM
*g:
8b-
=22
!LO:TX:a:i:t=G-minor
(16b-LL
16ccJ
8aJ)
(16aLL
16b-J
8gJ)
=23
(16gLL
16aJ
8fJ)
4f
=24
(16b-LL
16f)
(16f
16b-JJ)
(16b-LL
16a-X)
(16a-
16gJJ)
=25
2g
==
*-
